X:140
T:Reel 140
M:4/4
K:Amin
L:1/8
GD|CB,CA,  (3B,CD E2|GEFD EAA2| (3CB,A, EA, CDEC|DB,G,B, A,2:|EF|GFGE ABAG| (3FEF GF GDD2|CFEF GFAB|cABG AGED|CB,CD E2EF|GDED EDD2|G,2B,D CDED|EAAG A2|
